X:3014
T:Jig na Mire
T:The Mad Jig
O:england
R:Jig
C:John Mosey McGinley
S:James Byrne
N:Named by Mickey Golly
D:The Road to Glenlough
M:6/8
L:1/8
K:G
|:B,CD B,CD|B,CD ECE|B,CD B,CD|BAG ECE|
B,CD B,CD|B,CD ECE|B,CD B,CD|BAG EDC:|
|:Ddd AFD|DBc ECE|Ddd B2B|GFG ECE|
Ddd AFD|DBc ECE|Ddd B2B|GFG ECE:|
|:Daa afd|efg ge^c|daa afd|gfg efg|
agf gfe|fed e/f/ed|^cec BdB|ABA GEC:|


